src/topics/icons/woocommerce.svg

<svg height="153" preserveAspectRatio="xMidYMid" viewBox="0 0 256 153" width="256" xmlns="http://www.w3.org/2000/svg"><path d="m23.7586644 0h208.3787736c13.187205 0 23.862562 10.6753566 23.862562 23.8625617v79.5418723c0 13.187205-10.675357 23.862562-23.862562 23.862562h-74.727496l10.256715 25.118486-45.108614-25.118486h-98.6947182c-13.1872052 0-23.86256176-10.675357-23.86256176-23.862562v-79.5418723c-.10466036-13.0825448 10.57069616-23.8625617 23.75790136-23.8625617z" fill="#9b5c8f"/><path d="m14.5781994 21.7495935c1.4569105-1.9772358 3.6422764-3.0178862 6.5560975-3.2260163 5.3073171-.4162601 8.3252033 2.0813008 9.0536586 7.492683 3.2260162 21.7495935 6.7642276 40.1691057 10.5105691 55.2585365l22.7902439-43.3951219c2.0813008-3.9544715 4.6829268-6.0357724 7.804878-6.2439024 4.5788618-.3121952 7.3886179 2.601626 8.5333333 8.7414634 2.6016261 13.8406504 5.9317074 25.6 9.8861789 35.5902439 2.7056911-26.4325204 7.2845529-45.4764228 13.7365853-57.2357724 1.560976-2.9138211 3.850407-4.3707317 6.868293-4.5788618 2.393496-.2081301 4.578862.5203252 6.556097 2.0813008 1.977236 1.5609757 3.017886 3.5382114 3.226017 5.9317074.104065 1.8731707-.208131 3.4341463-1.040651 4.9951219-4.058536 7.4926829-7.388618 20.0845529-10.094309 37.5674797-2.601626 16.9626016-3.538211 30.1788618-2.913821 39.6487807.20813 2.601626-.20813 4.891057-1.24878 6.868292-1.248781 2.289431-3.121952 3.538212-5.5154476 3.746342-2.705691.20813-5.5154471-1.04065-8.2211382-3.850407-9.6780487-9.886178-17.3788618-24.6634142-22.9983739-44.3317069-6.7642277 13.3203252-11.7593496 23.3105691-14.9853659 29.9707317-6.1398374 11.7593492-11.3430894 17.7951222-15.7138211 18.1073172-2.8097561.20813-5.2032521-2.185366-7.2845529-7.180488-5.3073171-13.6325203-11.0308943-39.9609755-17.1707317-78.9853658-.4162602-2.705691.2081301-5.099187 1.6650407-6.9723577zm223.6357726 16.3382114c-3.746342-6.5560976-9.261789-10.5105691-16.650407-12.0715447-1.977236-.4162602-3.850406-.6243903-5.619512-.6243903-9.990244 0-18.107317 5.2032521-24.455285 15.6097561-5.411382 8.8455285-8.117073 18.6276423-8.117073 29.3463415 0 8.0130081 1.665041 14.8813008 4.995122 20.604878 3.746342 6.5560976 9.261789 10.5105695 16.650407 12.0715445 1.977236.41626 3.850406.62439 5.619512.62439 10.094309 0 18.211382-5.2032515 24.455284-15.6097556 5.411383-8.9495935 8.117074-18.7317073 8.117074-29.4504065.104065-8.1170732-1.665041-14.8813008-4.995122-20.500813zm-13.112195 28.8260162c-1.456911 6.8682927-4.058537 11.9674797-7.908943 15.4016261-3.017887 2.705691-5.827643 3.8504065-8.429269 3.3300813-2.497561-.5203252-4.578862-2.7056911-6.139837-6.7642277-1.248781-3.2260162-1.873171-6.4520325-1.873171-9.4699187 0-2.601626.20813-5.203252.728455-7.596748.936586-4.2666666 2.705691-8.4292682 5.515448-12.3837398 3.434146-5.099187 7.076422-7.1804878 10.822764-6.4520325 2.497561.5203252 4.578862 2.705691 6.139837 6.7642276 1.248781 3.2260163 1.873171 6.4520326 1.873171 9.4699187 0 2.7056911-.20813 5.3073171-.728455 7.700813zm-52.032521-28.8260162c-3.746341-6.5560976-9.365853-10.5105691-16.650406-12.0715447-1.977236-.4162602-3.850407-.6243903-5.619512-.6243903-9.990244 0-18.107318 5.2032521-24.455285 15.6097561-5.411382 8.8455285-8.117073 18.6276423-8.117073 29.3463415 0 8.0130081 1.66504 14.8813008 4.995122 20.604878 3.746341 6.5560976 9.261788 10.5105695 16.650406 12.0715445 1.977236.41626 3.850407.62439 5.619512.62439 10.094309 0 18.211383-5.2032515 24.455285-15.6097556 5.411382-8.9495935 8.117073-18.7317073 8.117073-29.4504065 0-8.1170732-1.66504-14.8813008-4.995122-20.500813zm-13.21626 28.8260162c-1.45691 6.8682927-4.058536 11.9674797-7.908943 15.4016261-3.017886 2.705691-5.827642 3.8504065-8.429268 3.3300813-2.497561-.5203252-4.578862-2.7056911-6.139838-6.7642277-1.24878-3.2260162-1.87317-6.4520325-1.87317-9.4699187 0-2.601626.20813-5.203252.728455-7.596748.936585-4.2666666 2.705691-8.4292682 5.515447-12.3837398 3.434146-5.099187 7.076423-7.1804878 10.822764-6.4520325 2.497561.5203252 4.578862 2.705691 6.139838 6.7642276 1.24878 3.2260163 1.87317 6.4520326 1.87317 9.4699187.104065 2.7056911-.20813 5.3073171-.728455 7.700813z" fill="#fff"/></svg>

<?xml version="1.0" encoding="UTF-8" standalone="no"?>
<svg width="256px" height="153px" viewBox="0 0 256 153" version="1.1" xmlns="http://www.w3.org/2000/svg" xmlns:xlink="http://www.w3.org/1999/xlink" preserveAspectRatio="xMidYMid">
	<g>
		<path d="M23.7586644,0 L232.137438,0 C245.324643,0 256,10.6753566 256,23.8625617 L256,103.404434 C256,116.591639 245.324643,127.266996 232.137438,127.266996 L157.409942,127.266996 L167.666657,152.385482 L122.558043,127.266996 L23.8633248,127.266996 C10.6761196,127.266996 0.000763038458,116.591639 0.000763038458,103.404434 L0.000763038458,23.8625617 C-0.10389732,10.7800169 10.5714592,0 23.7586644,0 L23.7586644,0 Z" fill="#9B5C8F"></path>
		<path d="M14.5781994,21.7495935 C16.0351099,19.7723577 18.2204758,18.7317073 21.1342969,18.5235772 C26.441614,18.1073171 29.4595002,20.604878 30.1879555,26.0162602 C33.4139717,47.7658537 36.9521831,66.1853659 40.6985246,81.2747967 L63.4887685,37.8796748 C65.5700693,33.9252033 68.1716953,31.8439024 71.2936465,31.6357724 C75.8725083,31.3235772 78.6822644,34.2373984 79.8269798,40.3772358 C82.4286059,54.2178862 85.7586872,65.9772358 89.7131587,75.9674797 C92.4188498,49.5349593 96.9977116,30.4910569 103.449744,18.7317073 C105.01072,15.8178862 107.300151,14.3609756 110.318037,14.1528455 C112.711533,13.9447154 114.896899,14.6731707 116.874134,16.2341463 C118.85137,17.795122 119.89202,19.7723577 120.100151,22.1658537 C120.204216,24.0390244 119.89202,25.6 119.0595,27.1609756 C115.000964,34.6536585 111.670882,47.2455285 108.965191,64.7284553 C106.363565,81.6910569 105.42698,94.9073171 106.05137,104.377236 C106.2595,106.978862 105.84324,109.268293 104.80259,111.245528 C103.553809,113.534959 101.680638,114.78374 99.2871424,114.99187 C96.5814514,115.2 93.7716953,113.95122 91.0660042,111.141463 C81.3879555,101.255285 73.6871424,86.4780488 68.0676303,66.8097561 C61.3034026,80.1300813 56.3082807,90.1203252 53.0822644,96.7804878 C46.942427,108.539837 41.739175,114.57561 37.3684433,114.887805 C34.5586872,115.095935 32.1651912,112.702439 30.0838904,107.707317 C24.7765733,94.0747967 19.0529961,67.7463415 12.9131587,28.7219512 C12.4968985,26.0162602 13.1212888,23.6227642 14.5781994,21.7495935 Z M238.213972,38.0878049 C234.46763,31.5317073 228.952183,27.5772358 221.563565,26.0162602 C219.586329,25.6 217.713159,25.3918699 215.944053,25.3918699 C205.953809,25.3918699 197.836736,30.595122 191.488768,41.001626 C186.077386,49.8471545 183.371695,59.6292683 183.371695,70.3479675 C183.371695,78.3609756 185.036736,85.2292683 188.366817,90.9528455 C192.113159,97.5089431 197.628606,101.463415 205.017224,103.02439 C206.99446,103.44065 208.86763,103.64878 210.636736,103.64878 C220.731045,103.64878 228.848118,98.4455285 235.09202,88.0390244 C240.503403,79.0894309 243.209094,69.3073171 243.209094,58.5886179 C243.313159,50.4715447 241.544053,43.7073171 238.213972,38.0878049 Z M225.101777,66.9138211 C223.644866,73.7821138 221.04324,78.8813008 217.192834,82.3154472 C214.174947,85.0211382 211.365191,86.1658537 208.763565,85.6455285 C206.266004,85.1252033 204.184703,82.9398374 202.623728,78.8813008 C201.374947,75.6552846 200.750557,72.4292683 200.750557,69.4113821 C200.750557,66.8097561 200.958687,64.2081301 201.479012,61.8146341 C202.415598,57.5479675 204.184703,53.3853659 206.99446,49.4308943 C210.428606,44.3317073 214.070882,42.2504065 217.817224,42.9788618 C220.314785,43.499187 222.396086,45.6845528 223.957061,49.7430894 C225.205842,52.9691057 225.830232,56.195122 225.830232,59.2130081 C225.830232,61.9186992 225.622102,64.5203252 225.101777,66.9138211 Z M173.069256,38.0878049 C169.322915,31.5317073 163.703403,27.5772358 156.41885,26.0162602 C154.441614,25.6 152.568443,25.3918699 150.799338,25.3918699 C140.809094,25.3918699 132.69202,30.595122 126.344053,41.001626 C120.932671,49.8471545 118.22698,59.6292683 118.22698,70.3479675 C118.22698,78.3609756 119.89202,85.2292683 123.222102,90.9528455 C126.968443,97.5089431 132.48389,101.463415 139.872508,103.02439 C141.849744,103.44065 143.722915,103.64878 145.49202,103.64878 C155.586329,103.64878 163.703403,98.4455285 169.947305,88.0390244 C175.358687,79.0894309 178.064378,69.3073171 178.064378,58.5886179 C178.064378,50.4715447 176.399338,43.7073171 173.069256,38.0878049 Z M159.852996,66.9138211 C158.396086,73.7821138 155.79446,78.8813008 151.944053,82.3154472 C148.926167,85.0211382 146.116411,86.1658537 143.514785,85.6455285 C141.017224,85.1252033 138.935923,82.9398374 137.374947,78.8813008 C136.126167,75.6552846 135.501777,72.4292683 135.501777,69.4113821 C135.501777,66.8097561 135.709907,64.2081301 136.230232,61.8146341 C137.166817,57.5479675 138.935923,53.3853659 141.745679,49.4308943 C145.179825,44.3317073 148.822102,42.2504065 152.568443,42.9788618 C155.066004,43.499187 157.147305,45.6845528 158.708281,49.7430894 C159.957061,52.9691057 160.581451,56.195122 160.581451,59.2130081 C160.685516,61.9186992 160.373321,64.5203252 159.852996,66.9138211 L159.852996,66.9138211 L159.852996,66.9138211 Z" fill="#FFFFFF"></path>
	</g>
</svg>
